x-pack/platform/packages/shared/kbn-inference-endpoint-ui-common/src/components/providers/assets/images/elastic.svg

<svg width="14" height="14" viewBox="0 0 14 14" fill="none" xmlns="http://www.w3.org/2000/svg">
<g id="Elastic Logo" clip-path="url(#clip0_3517_16106)">
<path id="Outline" fill-rule="evenodd" clip-rule="evenodd" d="M13.3683 5.76929C13.6877 6.22686 13.8583 6.77172 13.8569 7.32972C13.8541 7.88997 13.6804 8.43603 13.3589 8.89486C13.038 9.35285 12.5845 9.7015 12.0595 9.89386C12.2124 10.3141 12.2253 10.7725 12.0961 11.2006C11.9669 11.6287 11.7027 12.0035 11.3429 12.269C10.9833 12.5333 10.5474 12.6731 10.1011 12.6674C9.65492 12.6617 9.22272 12.5107 8.87003 12.2373C8.39436 12.9043 7.71899 13.4029 6.94145 13.661C6.16465 13.9188 5.32592 13.9222 4.54703 13.6709C3.76743 13.4189 3.08814 12.9255 2.60731 12.2621C2.12537 11.5976 1.86627 10.7975 1.86717 9.97657C1.86706 9.72855 1.89001 9.48106 1.93574 9.23729C1.40909 9.04854 0.954014 8.70098 0.633311 8.24258C0.311933 7.78314 0.140528 7.23554 0.142597 6.67486C0.145501 6.11457 0.319395 5.56851 0.641026 5.10972C0.962305 4.6517 1.41627 4.30319 1.94174 4.11115C1.78662 3.69074 1.77202 3.23136 1.90014 2.80195C2.02826 2.37254 2.29219 1.99626 2.65231 1.72958C3.01211 1.46404 3.44878 1.32328 3.89592 1.32869C4.34306 1.33411 4.77619 1.4854 5.12945 1.75958C5.64444 1.04047 6.39005 0.519302 7.24231 0.282718C8.09391 0.0467746 9.00068 0.110161 9.81117 0.46229C10.6227 0.815129 11.2891 1.43484 11.6999 2.21858C12.1115 3.00344 12.2435 3.9051 12.074 4.775C12.5977 4.96493 13.0498 5.31224 13.3683 5.76929ZM5.53403 6.05129L8.53488 7.42743L11.5632 4.76472C11.607 4.54501 11.6289 4.32148 11.6283 4.09743C11.6286 3.37229 11.3974 2.666 10.9683 2.08143C10.5403 1.49792 9.93643 1.06698 9.24546 0.851861C8.55514 0.637319 7.81416 0.650239 7.13174 0.888718C6.44837 1.12763 5.85956 1.5793 5.45174 2.17743L4.9486 4.79943L5.53445 6.05086L5.53403 6.05129ZM2.42817 9.24029C2.33332 9.70704 2.33721 10.1885 2.43958 10.6536C2.54196 11.1188 2.74055 11.5574 3.0226 11.9411C3.453 12.5265 4.05991 12.9582 4.75402 13.1729C5.44731 13.387 6.19109 13.3724 6.87545 13.1313C7.56085 12.8897 8.15062 12.4345 8.55803 11.8327L9.05774 9.21758L8.39131 7.93829L5.37845 6.56215L2.42774 9.23986L2.42817 9.24029ZM4.46602 4.51572L2.40888 4.02843L2.40974 4.02758C2.29072 3.69713 2.28112 3.33716 2.38237 3.00084C2.48362 2.66452 2.69035 2.36968 2.97202 2.15986C3.25372 1.9511 3.59548 1.83922 3.94609 1.841C4.29671 1.84278 4.63732 1.95811 4.91688 2.16972L4.46602 4.51572ZM2.2306 4.52C1.78544 4.66747 1.3969 4.94924 1.11845 5.32658C0.839302 5.70454 0.683648 6.15948 0.672756 6.62923C0.661864 7.09898 0.796264 7.56065 1.0576 7.95115C1.3186 8.34115 1.6936 8.64115 2.13117 8.80829L5.01674 6.19358L4.48745 5.05786L2.2306 4.52ZM10.0675 12.1691C9.71278 12.1685 9.36834 12.0502 9.08817 11.8327L9.5326 9.49529L11.5897 9.97743C11.6796 10.2236 11.7089 10.4877 11.6753 10.7476C11.6417 11.0075 11.546 11.2554 11.3965 11.4706C11.2477 11.6855 11.0491 11.8613 10.8177 11.983C10.5863 12.1046 10.3289 12.1685 10.0675 12.1691ZM9.50603 8.95529L11.7689 9.48586C12.2209 9.33292 12.6138 9.04253 12.8926 8.65529C13.172 8.26743 13.3238 7.80218 13.3267 7.32415C13.3266 6.86346 13.1868 6.41366 12.9256 6.03415C12.6649 5.65512 12.2949 5.36451 11.8649 5.201L8.90602 7.80243L9.50603 8.95529Z" fill="white"/>
<path id="Vector" d="M5.53465 6.05061L8.53551 7.42676L11.5638 4.76404C11.6077 4.54434 11.6295 4.3208 11.6289 4.09676C11.6292 3.37162 11.398 2.66532 10.9689 2.08076C10.5409 1.49724 9.93705 1.0663 9.24608 0.851186C8.55576 0.636644 7.81478 0.649564 7.13236 0.888043C6.44899 1.12696 5.86018 1.57862 5.45236 2.17676L4.94922 4.79876L5.53508 6.05019L5.53465 6.05061Z" fill="#FEC514"/>
<path id="Vector_2" d="M2.42774 9.24064C2.33289 9.70739 2.33678 10.1888 2.43915 10.654C2.54153 11.1191 2.74012 11.5577 3.02217 11.9415C3.45257 12.5268 4.05948 12.9586 4.75359 13.1732C5.44688 13.3873 6.19066 13.3728 6.87502 13.1316C7.56042 12.89 8.15019 12.4349 8.55759 11.8331L9.05731 9.21793L8.39088 7.93864L5.37802 6.5625L2.42731 9.24021L2.42774 9.24064Z" fill="#00BFB3"/>
<path id="Vector_3" d="M2.40851 4.02925L4.46565 4.51654L4.91651 2.17054C4.63695 1.95893 4.29634 1.84359 3.94572 1.84182C3.59511 1.84004 3.25335 1.95191 2.97165 2.16068C2.68998 2.3705 2.48325 2.66534 2.382 3.00166C2.28075 3.33798 2.29034 3.69795 2.40937 4.02839" fill="#F04E98"/>
<path id="Vector_4" d="M2.23033 4.51953C1.78517 4.66699 1.39664 4.94877 1.11819 5.3261C0.839035 5.70407 0.683381 6.15901 0.672488 6.62876C0.661596 7.09851 0.795996 7.56017 1.05733 7.95067C1.31833 8.34067 1.69333 8.64067 2.1309 8.80782L5.01647 6.1931L4.48719 5.05739L2.23033 4.51953Z" fill="#1BA9F5"/>
<path id="Vector_5" d="M9.08789 11.8335C9.36806 12.051 9.7125 12.1693 10.0672 12.17C10.3286 12.1693 10.586 12.1054 10.8174 11.9838C11.0488 11.8621 11.2474 11.6863 11.3962 11.4714C11.5457 11.2562 11.6414 11.0083 11.675 10.7484C11.7087 10.4885 11.6793 10.2244 11.5895 9.97824L9.53232 9.49609L9.08789 11.8335Z" fill="#93C90E"/>
<path id="Vector_6" d="M9.50625 8.95546L11.7691 9.48603C12.2211 9.33309 12.614 9.04269 12.8928 8.65546C13.1723 8.2676 13.324 7.80235 13.327 7.32431C13.3269 6.86363 13.187 6.41382 12.9258 6.03431C12.6651 5.65529 12.2951 5.36468 11.8651 5.20117L8.90625 7.8026L9.50625 8.95546Z" fill="#0077CC"/>
</g>
<defs>
<clipPath id="clip0_3517_16106">
<rect width="13.7143" height="13.7143" fill="white" transform="translate(0.142578 0.142578)"/>
</clipPath>
</defs>
</svg>

<svg xmlns="http://www.w3.org/2000/svg" width="14" height="14" fill="none"><g clip-path="url(#a)"><path fill="#fff" fill-rule="evenodd" d="M13.368 5.77c.32.457.49 1.002.489 1.56a2.75 2.75 0 0 1-.498 1.565c-.321.458-.774.806-1.3.999a2.07 2.07 0 0 1-.716 2.375 2.05 2.05 0 0 1-2.473-.032 3.86 3.86 0 0 1-1.929 1.424 3.85 3.85 0 0 1-4.334-1.399 3.9 3.9 0 0 1-.74-2.285 4 4 0 0 1 .069-.74 2.7 2.7 0 0 1-1.303-.994 2.7 2.7 0 0 1-.49-1.568 2.736 2.736 0 0 1 1.8-2.564 2.07 2.07 0 0 1 .71-2.381 2.05 2.05 0 0 1 2.476.03A3.86 3.86 0 0 1 9.811.463 3.88 3.88 0 0 1 11.7 2.218c.412.784.543 1.686.374 2.556a2.7 2.7 0 0 1 1.294.994m-7.834.281 3 1.376 3.03-2.662q.065-.331.064-.668c0-.725-.23-1.431-.66-2.016a3.373 3.373 0 0 0-5.517.096L4.95 4.8zm-3.106 3.19a3.41 3.41 0 0 0 .595 2.7 3.382 3.382 0 0 0 5.535-.108l.5-2.615-.667-1.28-3.013-1.376-2.95 2.678m2.038-4.725-2.057-.488a1.64 1.64 0 0 1 .563-1.868 1.62 1.62 0 0 1 1.945.01zm-2.235.004a2.282 2.282 0 0 0-.1 4.288l2.886-2.614-.53-1.136zm7.837 7.65c-.355-.002-.7-.12-.98-.337l.445-2.338 2.057.482a1.634 1.634 0 0 1-.772 2.006 1.6 1.6 0 0 1-.75.186m-.562-3.215 2.263.53a2.301 2.301 0 0 0 1.558-2.162 2.28 2.28 0 0 0-1.462-2.122L8.906 7.802z" clip-rule="evenodd"/><path fill="#FEC514" d="m5.535 6.05 3 1.377 3.029-2.663a3.404 3.404 0 0 0-.595-2.683 3.373 3.373 0 0 0-5.517.096L4.95 4.799z"/><path fill="#00BFB3" d="M2.428 9.24a3.41 3.41 0 0 0 .594 2.701 3.38 3.38 0 0 0 3.853 1.19 3.4 3.4 0 0 0 1.683-1.298l.5-2.615-.667-1.28-3.013-1.375z"/><path fill="#F04E98" d="m2.409 4.03 2.057.487.45-2.346A1.622 1.622 0 0 0 2.383 3c-.101.337-.092.697.027 1.027"/><path fill="#1BA9F5" d="M2.23 4.52a2.282 2.282 0 0 0-.1 4.288l2.886-2.615-.529-1.136z"/><path fill="#93C90E" d="M9.088 11.834a1.6 1.6 0 0 0 2.308-.363 1.64 1.64 0 0 0 .193-1.493l-2.057-.482z"/><path fill="#07C" d="m9.506 8.955 2.263.531a2.302 2.302 0 0 0 1.558-2.162 2.28 2.28 0 0 0-1.462-2.123L8.906 7.803z"/></g><defs><clipPath id="a"><path fill="#fff" d="M.143.143h13.714v13.714H.143z"/></clipPath></defs></svg>
